svg/tooltip_edit.svg

<svg xmlns="http://www.w3.org/2000/svg" viewBox="0 0 24 24"><path d="M20 2H4c-1.1 0-2 .9-2 2v12a2 2 0 0 0 2 2h4l4 4 4-4h4c1.11 0 2-.89 2-2V4a2 2 0 0 0-2-2M9.08 15H7v-2.09l6.17-6.19 2.07 2.08zm7.76-7.8-1.01 1.01-2.07-2.03 1.01-1.02c.2-.21.54-.22.78 0l1.29 1.25c.21.21.22.55 0 .79"/></svg>

<?xml version="1.0" encoding="UTF-8"?><!DOCTYPE svg PUBLIC "-//W3C//DTD SVG 1.1//EN" "http://www.w3.org/Graphics/SVG/1.1/DTD/svg11.dtd"><svg xmlns="http://www.w3.org/2000/svg" xmlns:xlink="http://www.w3.org/1999/xlink" version="1.1" id="mdi-tooltip-edit" width="24" height="24" viewBox="0 0 24 24"><path d="M20 2H4C2.9 2 2 2.9 2 4V16C2 17.11 2.9 18 4 18H8L12 22L16 18H20C21.11 18 22 17.11 22 16V4C22 2.9 21.11 2 20 2M9.08 15H7V12.91L13.17 6.72L15.24 8.8L9.08 15M16.84 7.2L15.83 8.21L13.76 6.18L14.77 5.16C14.97 4.95 15.31 4.94 15.55 5.16L16.84 6.41C17.05 6.62 17.06 6.96 16.84 7.2Z" /></svg>
